public/images/imagePNG.svg

<svg width="116" height="116" viewBox="0 0 116 116" fill="none" xmlns="http://www.w3.org/2000/svg">
<path d="M11.6001 98.5995C11.6001 100.138 12.2112 101.613 13.2989 102.701C14.3866 103.788 15.8618 104.4 17.4001 104.4H25.1334V90.8662H15.4668C15.4668 90.8662 11.6001 90.8662 11.6001 98.5995Z" fill="#2C435D"/>
<path d="M104.4 23.1998V106.333C104.4 108.384 103.585 110.351 102.135 111.801C100.685 113.252 98.7179 114.066 96.6669 114.066H30.9335C28.8825 114.066 26.9155 113.252 25.4652 111.801C24.015 110.351 23.2002 108.384 23.2002 106.333V9.66644C23.2002 7.61543 24.015 5.64843 25.4652 4.19815C26.9155 2.74787 28.8825 1.93311 30.9335 1.93311H83.1335L104.4 23.1998Z" fill="#DDE3EB"/>
<path d="M104.4 23.1998H85.0669C84.0035 23.1998 83.1335 22.3298 83.1335 21.2664V1.93311L104.4 23.1998Z" fill="#93A7C1"/>
<path d="M17.4001 92.8H87.0001C88.5384 92.8 90.0136 92.1889 91.1013 91.1012C92.189 90.0135 92.8001 88.5382 92.8001 87V59.9333C92.8001 58.395 92.189 56.9198 91.1013 55.8321C90.0136 54.7444 88.5384 54.1333 87.0001 54.1333H17.4001C15.8618 54.1333 14.3866 54.7444 13.2989 55.8321C12.2112 56.9198 11.6001 58.395 11.6001 59.9333V98.6C11.6001 97.0617 12.2112 95.5865 13.2989 94.4988C14.3866 93.411 15.8618 92.8 17.4001 92.8Z" fill="#4A6D97"/>
<path d="M45.3699 70.0254C45.3699 71.4174 44.8899 72.5774 43.9299 73.5054C42.9859 74.4174 41.5379 74.8734 39.5859 74.8734H36.3699V81.8574H34.1859V65.1294H39.5859C41.4739 65.1294 42.9059 65.5854 43.8819 66.4974C44.8739 67.4094 45.3699 68.5854 45.3699 70.0254ZM39.5859 73.0734C40.8019 73.0734 41.6979 72.8094 42.2739 72.2814C42.8499 71.7534 43.1379 71.0014 43.1379 70.0254C43.1379 67.9614 41.9539 66.9294 39.5859 66.9294H36.3699V73.0734H39.5859ZM61.2363 81.8574H59.0523L50.2683 68.5374V81.8574H48.0843V65.1054H50.2683L59.0523 78.4014V65.1054H61.2363V81.8574ZM77.6313 69.9774C77.1673 69.0014 76.4953 68.2494 75.6153 67.7214C74.7353 67.1774 73.7113 66.9054 72.5433 66.9054C71.3753 66.9054 70.3193 67.1774 69.3753 67.7214C68.4473 68.2494 67.7113 69.0174 67.1673 70.0254C66.6393 71.0174 66.3753 72.1694 66.3753 73.4814C66.3753 74.7934 66.6393 75.9454 67.1673 76.9374C67.7113 77.9294 68.4473 78.6974 69.3753 79.2414C70.3193 79.7694 71.3753 80.0334 72.5433 80.0334C74.1753 80.0334 75.5193 79.5454 76.5753 78.5694C77.6313 77.5934 78.2473 76.2734 78.4233 74.6094H71.7513V72.8334H80.7513V74.5134C80.6233 75.8894 80.1913 77.1534 79.4553 78.3054C78.7193 79.4414 77.7513 80.3454 76.5513 81.0174C75.3513 81.6734 74.0153 82.0014 72.5433 82.0014C70.9913 82.0014 69.5753 81.6414 68.2953 80.9214C67.0153 80.1854 65.9993 79.1694 65.2473 77.8734C64.5113 76.5774 64.1433 75.1134 64.1433 73.4814C64.1433 71.8494 64.5113 70.3854 65.2473 69.0894C65.9993 67.7774 67.0153 66.7614 68.2953 66.0414C69.5753 65.3054 70.9913 64.9374 72.5433 64.9374C74.3193 64.9374 75.8873 65.3774 77.2473 66.2574C78.6233 67.1374 79.6233 68.3774 80.2473 69.9774H77.6313Z" fill="white"/>
</svg>

<?xml version="1.0" encoding="utf-8"?>
<!-- Generator: Adobe Illustrator 24.3.0, SVG Export Plug-In . SVG Version: 6.00 Build 0)  -->
<svg version="1.1" id="Layer_1" xmlns="http://www.w3.org/2000/svg" xmlns:xlink="http://www.w3.org/1999/xlink" x="0px" y="0px"
	 viewBox="0 0 116 116" style="enable-background:new 0 0 116 116;" xml:space="preserve">
<style type="text/css">
	.st0{fill:#2C435D;}
	.st1{fill:#DDE3EB;}
	.st2{fill:#93A7C1;}
	.st3{fill:#4A6D97;}
</style>
<path class="st0" d="M11.6,98.6c0,1.5,0.6,3,1.7,4.1c1.1,1.1,2.6,1.7,4.1,1.7h7.7V90.9h-9.7C15.5,90.9,11.6,90.9,11.6,98.6z"/>
<path class="st1" d="M104.4,23.2v83.1c0,2.1-0.8,4-2.3,5.5c-1.5,1.5-3.4,2.3-5.5,2.3H30.9c-2.1,0-4-0.8-5.5-2.3
	c-1.5-1.5-2.3-3.4-2.3-5.5V9.7c0-2.1,0.8-4,2.3-5.5c1.5-1.5,3.4-2.3,5.5-2.3h52.2L104.4,23.2z"/>
<path class="st2" d="M104.4,23.2H85.1c-1.1,0-1.9-0.9-1.9-1.9V1.9L104.4,23.2z"/>
<path class="st3" d="M17.4,92.8H87c1.5,0,3-0.6,4.1-1.7c1.1-1.1,1.7-2.6,1.7-4.1V59.9c0-1.5-0.6-3-1.7-4.1s-2.6-1.7-4.1-1.7H17.4
	c-1.5,0-3,0.6-4.1,1.7s-1.7,2.6-1.7,4.1v38.7c0-1.5,0.6-3,1.7-4.1C14.4,93.4,15.9,92.8,17.4,92.8z"/>
</svg>
